learning-site/svg (48).svg

<svg xmlns="http://www.w3.org/2000/svg" xmlns:xlink="http://www.w3.org/1999/xlink" viewBox="0 0 100 100" version="1.1"><!-- Generator: Sketch 51.3 (57544) - http://www.bohemiancoding.com/sketch --><title>discover-sentiment-in-text-with-the-text-analytics-api</title><desc>Created with Sketch.</desc><defs><filter x="-1.6%" y="-1.4%" width="103.1%" height="105.7%" filterUnits="objectBoundingBox" id="filter-1"><feOffset dx="0" dy="2" in="SourceAlpha" result="shadowOffsetOuter1"></feOffset><feColorMatrix values="0 0 0 0 0   0 0 0 0 0   0 0 0 0 0  0 0 0 0.103204257 0" type="matrix" in="shadowOffsetOuter1" result="shadowMatrixOuter1"></feColorMatrix><feMerge><feMergeNode in="shadowMatrixOuter1"></feMergeNode><feMergeNode in="SourceGraphic"></feMergeNode></feMerge></filter><path d="M32,46 C28.149856,46 25,49.149856 25,53 C25,56.850144 28.149856,60 32,60 C35.850144,60 39,56.850144 39,53 C39,49.149856 35.850144,46 32,46 Z M27.9998629,51.0004114 C27.9998629,50.4501166 28.4498423,50.0001371 29.0001371,50.0001371 C29.550432,50.0001371 30.0004114,50.4501166 30.0004114,51.0004114 C30.0004114,51.5507063 29.550432,52.0006857 29.0001371,52.0006857 C28.4498423,51.9997473 27.9998629,51.5497703 27.9998629,51.0004114 Z M35.3495269,56.0495406 C34.449568,56.9494995 33.1999451,57.4491566 32,57.4491566 C30.8000549,57.4491566 29.550432,56.9991772 28.6504731,56.0495406 C28.450795,55.8498625 28.450795,55.5498834 28.6504731,55.3492526 C28.8501512,55.1495745 29.1501303,55.1495745 29.3507611,55.3492526 C30.8010148,56.7995063 33.2009051,56.7995063 34.6501988,55.3492526 C34.8498769,55.1495745 35.149856,55.1495745 35.3504868,55.3492526 C35.5501649,55.549869 35.5501649,55.8498457 35.3495485,56.0495406 L35.3495269,56.0495406 Z M34.9998629,51.9997257 C34.449568,51.9997257 33.9995886,51.5497463 33.9995886,50.9994515 C33.9995886,50.4491566 34.449568,49.9991772 34.9998629,49.9991772 C35.5501577,49.9991772 36.0001371,50.4491566 36.0001371,50.9994515 C36.0001371,51.5497463 35.5501577,51.9997257 34.9998629,51.9997257 Z" id="path-2"></path><filter x="-1.8%" y="-5.4%" width="103.6%" height="107.1%" filterUnits="objectBoundingBox" id="filter-3"><feOffset dx="0" dy="-0.5" in="SourceAlpha" result="shadowOffsetOuter1"></feOffset><feColorMatrix values="0 0 0 0 0   0 0 0 0 0   0 0 0 0 0  0 0 0 0.403419384 0" type="matrix" in="shadowOffsetOuter1"></feColorMatrix></filter></defs><g id="Badges-FINAL" stroke="none" stroke-width="1" fill="none" fill-rule="evenodd"><g id="N/A-2" transform="translate(-577.000000, -1229.000000)"><g id="discover-sentiment-in-text-with-the-text-analytics-api" transform="translate(577.000000, 1229.000000)"><rect id="BG" fill="#55A2FF" x="2" y="2" width="96" height="96" rx="48"></rect><g id="Group-5" filter="url(#filter-1)" transform="translate(18.000000, 15.000000)"><path d="M30,24 C15.87,24 6,32.252 6,44.066 C6,48.696 7.545,51.404 9.802,54.414 L6.078,67.45 C5.856,68.224 6.12,69.054 6.747,69.558 C7.11,69.851 7.553,70 8,70 C8.325,70 8.651,69.921 8.948,69.762 L23.012,62.194 C25.315,62.932 27.717,63 30,63 C44.356,63 54,55.392 54,44.066 C54,32.252 44.131,24 30,24" id="Fill-175" fill="#30404D"></path><path d="M32,0 C14.355,0 0,14.355 0,32 C0,49.644 14.355,64 32,64 C49.645,64 64,49.644 64,32 C64,14.355 49.645,0 32,0" id="Fill-324" fill="#546670"></path><path d="M59.821,28.799 C58.389,15.954 48.046,5.612 35.201,4.179 C18.335,2.298 4,15.506 4,32 C4,32.335 4.014,32.667 4.025,33 C4.515,19.155 15.098,7.834 28.626,6.202 C30.418,5.986 32,7.383 32,9.187 L32,36.985 C29.437,36.984 27.305,35.037 27.047,32.5 C27.024,32.725 26.995,32.948 27.003,33.18 C27.083,35.367 28.564,37.168 30.549,37.77 C31.402,38.029 32,38.794 32,39.686 L32,60 C48.494,60 61.702,45.665 59.821,28.799" id="Fill-325" fill="#405563"></path><path d="M57,32 C57,31.977 56.988,31.957 56.987,31.935 C56.971,25.555 54.535,19.18 49.678,14.322 C44.821,9.466 38.447,7.03 32.067,7.014 C32.044,7.012 32.024,7 32,7 C31.976,7 31.956,7.012 31.933,7.014 C25.553,7.031 19.179,9.466 14.322,14.322 C9.465,19.18 7.03,25.555 7.013,31.935 C7.012,31.957 7,31.977 7,32 C7,32.023 7.012,32.043 7.013,32.064 C7.029,38.443 9.464,44.817 14.319,49.674 C14.32,49.676 14.321,49.678 14.322,49.68 C14.518,49.875 14.773,49.973 15.029,49.973 C15.285,49.973 15.541,49.875 15.736,49.68 L18.564,46.851 C18.955,46.46 18.955,45.826 18.564,45.436 C18.174,45.046 17.541,45.046 17.15,45.436 L15.066,47.521 C11.287,43.4 9.285,38.238 9.059,33 L12,33 C12.552,33 13,32.553 13,32 C13,31.447 12.552,31 12,31 L9.059,31 C9.285,25.762 11.287,20.601 15.065,16.479 L17.151,18.565 C17.346,18.761 17.602,18.858 17.858,18.858 C18.114,18.858 18.37,18.761 18.565,18.565 C18.956,18.175 18.956,17.542 18.565,17.151 L16.479,15.065 C20.6,11.287 25.761,9.285 31,9.059 L31,12 C31,12.553 31.448,13 32,13 C32.552,13 33,12.553 33,12 L33,9.059 C38.239,9.285 43.4,11.287 47.521,15.065 L45.435,17.152 C45.044,17.543 45.044,18.176 45.435,18.566 C45.63,18.762 45.886,18.859 46.142,18.859 C46.398,18.859 46.653,18.762 46.849,18.566 L48.936,16.479 C52.713,20.601 54.715,25.762 54.941,31 L52,31 C51.448,31 51,31.447 51,32 C51,32.553 51.448,33 52,33 L54.941,33 C54.715,38.238 52.713,43.4 48.935,47.521 L46.849,45.435 C46.459,45.045 45.826,45.045 45.435,45.435 C45.044,45.826 45.044,46.459 45.435,46.85 L48.263,49.678 C48.459,49.873 48.714,49.971 48.97,49.971 C48.97,49.971 48.97,49.971 48.971,49.971 C49.227,49.971 49.482,49.873 49.678,49.678 C54.535,44.82 56.97,38.445 56.987,32.064 C56.988,32.043 57,32.023 57,32" id="Fill-326" fill="#E1E4E1"></path><path d="M48.8058588,58.4152353 L39.24283,45.1271765 C38.6704384,43.9573529 37.2823887,43 36.1580479,43 L26.9588967,43 C25.834556,43 24.4741037,43.9758824 23.9364644,45.1691765 L15,58.1743529 C19.9726523,61.8654118 25.8182019,64 32.0695363,64 C38.1828834,64 43.9067997,61.9580588 48.8058588,58.4152353 Z" id="Fill-327" fill="#30404D"></path><path d="M34.0159614,27.7610666 C33.9332299,27.7023768 33.854034,27.6429798 33.7684741,27.5899468 L33.7670598,27.5885326 C38.9876292,26.5299937 48.501751,24.7134364 48.7987358,25.4558985 C49.0794572,26.1594698 40.9986409,30.5520171 35.8890873,33.2446797 C35.8890873,33.2432655 35.8897944,33.2411442 35.8897944,33.2411442 C36.065864,32.6422247 36.1302107,32.0235063 36.079299,31.405495 C36.0729351,31.3284203 36.0665711,31.2527599 36.0566716,31.1763924 C36.0361655,31.0116365 36.0121239,30.8504161 35.9753543,30.6877816 C35.9272711,30.4714069 35.8643386,30.2585678 35.7865568,30.0492642 C35.7497873,29.9530976 35.7045324,29.8597595 35.6628131,29.7657143 C35.5772532,29.57126 35.476844,29.3817554 35.3644141,29.1986147 C35.3184521,29.1229543 35.271076,29.0487081 35.2201643,28.975169 C35.0532871,28.7333384 34.8722677,28.4999932 34.6566002,28.2843256 C34.4571961,28.0849215 34.2394072,27.9166301 34.0159614,27.7610666 Z" id="Fill-328" fill="#DF5142"></path><path d="M32,27 C29.243,27 27,29.243 27,32 C27,34.757 29.243,37 32,37 C34.757,37 37,34.757 37,32 C37,29.243 34.757,27 32,27" id="Fill-329" fill="#C5CCCD"></path><path d="M33,12 L33,9.059 C38.239,9.285 43.4,11.287 47.521,15.065 L45.435,17.152 C45.044,17.543 45.044,18.176 45.435,18.566 C45.63,18.762 45.886,18.859 46.142,18.859 C46.398,18.859 46.653,18.762 46.849,18.566 L48.936,16.479 C52.713,20.601 54.715,25.762 54.941,31 L52,31 C51.448,31 51,31.447 51,32 C51,32.553 51.448,33 52,33 L54.941,33 C54.715,38.238 52.713,43.4 48.935,47.521 L46.849,45.435 C46.459,45.045 45.826,45.045 45.435,45.435 C45.044,45.826 45.044,46.459 45.435,46.85 L48.263,49.678 C48.459,49.873 48.714,49.971 48.97,49.971 C48.97,49.971 48.97,49.971 48.971,49.971 C49.227,49.971 49.482,49.873 49.678,49.678 C54.535,44.82 56.97,38.445 56.987,32.065 C56.988,32.043 57,32.023 57,32 C57,31.977 56.988,31.957 56.987,31.935 C56.971,25.555 54.535,19.18 49.678,14.322 C44.821,9.466 38.447,7.03 32.067,7.014 C32.044,7.012 32.024,7 32,7 L32,13 C32.552,13 33,12.553 33,12" id="Fill-333" fill="#C5CCCD"></path><path d="M32,60 C16.561,60 4,47.439 4,32 C4,16.561 16.561,4 32,4 C47.439,4 60,16.561 60,32 C60,47.439 47.439,60 32,60 Z M32,0 C14.355,0 0,14.355 0,32 C0,49.644 14.355,64 32,64 C49.645,64 64,49.644 64,32 C64,14.355 49.645,0 32,0 Z" id="Fill-334" fill="#30404D"></path><path d="M35.534,28.477 L28.483,35.527 C28.527,35.57 28.558,35.621 28.603,35.663 C30.622,37.541 33.793,37.426 35.67,35.407 C37.505,33.433 37.424,30.368 35.534,28.477" id="Fill-335" fill="#ACB8C0"></path><path d="M32,30 C30.898,30 30,30.897 30,32 C30,33.102 30.898,34 32,34 C33.103,34 34,33.102 34,32 C34,30.897 33.103,30 32,30" id="Fill-336" fill="#546670"></path><g id="Fill-1"><use fill="black" fill-opacity="1" filter="url(#filter-3)" xlink:href="#path-2"></use><use fill="#EEC360" fill-rule="evenodd" xlink:href="#path-2"></use></g></g><g id="Azure-Border" stroke="#0078D4" stroke-width="4"><rect x="2" y="2" width="96" height="96" rx="48"></rect></g></g></g></g></svg>

<svg xmlns="http://www.w3.org/2000/svg" xmlns:xlink="http://www.w3.org/1999/xlink" viewBox="0 0 100 100"><defs><filter x="-1.6%" y="-1.4%" width="103.1%" height="105.7%" filterUnits="objectBoundingBox" id="a"><feOffset dy="2" in="SourceAlpha" result="shadowOffsetOuter1"/><feColorMatrix values="0 0 0 0 0 0 0 0 0 0 0 0 0 0 0 0 0 0 0.103204257 0" in="shadowOffsetOuter1" result="shadowMatrixOuter1"/><feMerge><feMergeNode in="shadowMatrixOuter1"/><feMergeNode in="SourceGraphic"/></feMerge></filter><path d="M32 46c-3.85 0-7 3.15-7 7s3.15 7 7 7 7-3.15 7-7-3.15-7-7-7zm-4 5c0-.55.45-1 1-1s1 .45 1 1-.45 1-1 1-1-.45-1-1zm7.35 5.05c-.9.9-2.15 1.4-3.35 1.4-1.2 0-2.45-.45-3.35-1.4-.2-.2-.2-.5 0-.7.2-.2.5-.2.7 0 1.451 1.45 3.85 1.45 5.3 0 .2-.2.5-.2.7 0 .2.2.2.5 0 .7zM35 52c-.55 0-1-.45-1-1s.45-1 1-1 1 .45 1 1-.45 1-1 1z" id="c"/><filter x="-1.8%" y="-5.4%" width="103.6%" height="107.1%" filterUnits="objectBoundingBox" id="b"><feOffset dy="-.5" in="SourceAlpha" result="shadowOffsetOuter1"/><feColorMatrix values="0 0 0 0 0 0 0 0 0 0 0 0 0 0 0 0 0 0 0.403419384 0" in="shadowOffsetOuter1"/></filter></defs><g fill="none" fill-rule="evenodd"><rect fill="#55A2FF" x="2" y="2" width="96" height="96" rx="48"/><g filter="url(#a)" transform="translate(18 15)"><path d="M30 24C15.87 24 6 32.252 6 44.066c0 4.63 1.545 7.338 3.802 10.348L6.078 67.45A1.997 1.997 0 0 0 8 70c.325 0 .651-.079.948-.238l14.064-7.568c2.303.738 4.705.806 6.988.806 14.356 0 24-7.608 24-18.934C54 32.252 44.131 24 30 24" fill="#30404D"/><path d="M32 0C14.355 0 0 14.355 0 32c0 17.644 14.355 32 32 32s32-14.356 32-32C64 14.355 49.645 0 32 0" fill="#546670"/><path d="M59.821 28.799c-1.432-12.845-11.775-23.187-24.62-24.62C18.335 2.298 4 15.506 4 32c0 .335.014.667.025 1 .49-13.845 11.073-25.166 24.601-26.798A3.011 3.011 0 0 1 32 9.187v27.798a4.985 4.985 0 0 1-4.953-4.485c-.023.225-.052.448-.044.68a4.992 4.992 0 0 0 3.546 4.59c.853.259 1.451 1.024 1.451 1.916V60c16.494 0 29.702-14.335 27.821-31.201" fill="#405563"/><path d="M57 32c0-.023-.012-.043-.013-.065-.016-6.38-2.452-12.755-7.309-17.613-4.857-4.856-11.231-7.292-17.611-7.308C32.044 7.012 32.024 7 32 7c-.024 0-.044.012-.067.014-6.38.017-12.754 2.452-17.611 7.308C9.465 19.18 7.03 25.555 7.013 31.935 7.012 31.957 7 31.977 7 32s.012.043.013.064c.016 6.379 2.451 12.753 7.306 17.61l.003.006a.999.999 0 0 0 1.414 0l2.828-2.829a1 1 0 1 0-1.414-1.415l-2.084 2.085A22.877 22.877 0 0 1 9.059 33H12a1 1 0 1 0 0-2H9.059a22.883 22.883 0 0 1 6.006-14.521l2.086 2.086a.993.993 0 0 0 .707.293.999.999 0 0 0 .707-1.707l-2.086-2.086A22.879 22.879 0 0 1 31 9.059V12a1 1 0 1 0 2 0V9.059a22.879 22.879 0 0 1 14.521 6.006l-2.086 2.087a.999.999 0 1 0 1.414 1.414l2.087-2.087A22.887 22.887 0 0 1 54.941 31H52a1 1 0 1 0 0 2h2.941a22.881 22.881 0 0 1-6.006 14.521l-2.086-2.086a1 1 0 0 0-1.414 1.415l2.828 2.828a.999.999 0 0 0 .707.293h.001a.999.999 0 0 0 .707-.293c4.857-4.858 7.292-11.233 7.309-17.614.001-.021.013-.041.013-.064" fill="#E1E4E1"/><path d="M48.806 58.415l-9.563-13.288C38.67 43.957 37.283 43 36.158 43h-9.2c-1.123 0-2.484.976-3.022 2.17L15 58.173C19.973 61.865 25.818 64 32.07 64c6.113 0 11.837-2.042 16.736-5.585z" fill="#30404D"/><path d="M34.016 27.761c-.083-.059-.162-.118-.248-.171v-.001c5.22-1.059 14.734-2.876 15.03-2.133.281.703-7.8 5.096-12.909 7.789v-.004a5.027 5.027 0 0 0 .168-2.065 4.853 4.853 0 0 0-.27-1.127c-.037-.096-.082-.19-.124-.283a4.718 4.718 0 0 0-.443-.79 4.885 4.885 0 0 0-.563-.692c-.2-.2-.418-.367-.641-.523z" fill="#DF5142"/><path d="M32 27c-2.757 0-5 2.243-5 5s2.243 5 5 5 5-2.243 5-5-2.243-5-5-5M33 12V9.059a22.879 22.879 0 0 1 14.521 6.006l-2.086 2.087a.999.999 0 1 0 1.414 1.414l2.087-2.087A22.887 22.887 0 0 1 54.941 31H52a1 1 0 1 0 0 2h2.941a22.881 22.881 0 0 1-6.006 14.521l-2.086-2.086a1 1 0 0 0-1.414 1.415l2.828 2.828a.999.999 0 0 0 .707.293h.001a.999.999 0 0 0 .707-.293c4.857-4.858 7.292-11.233 7.309-17.613.001-.022.013-.042.013-.065s-.012-.043-.013-.065c-.016-6.38-2.452-12.755-7.309-17.613-4.857-4.856-11.231-7.292-17.611-7.308C32.044 7.012 32.024 7 32 7v6a1 1 0 0 0 1-1" fill="#C5CCCD"/><path d="M32 60C16.561 60 4 47.439 4 32S16.561 4 32 4s28 12.561 28 28-12.561 28-28 28zm0-60C14.355 0 0 14.355 0 32c0 17.644 14.355 32 32 32s32-14.356 32-32C64 14.355 49.645 0 32 0z" fill="#30404D"/><path d="M35.534 28.477l-7.051 7.05c.044.043.075.094.12.136a5.006 5.006 0 0 0 7.067-.256c1.835-1.974 1.754-5.039-.136-6.93" fill="#ACB8C0"/><path d="M32 30c-1.102 0-2 .897-2 2 0 1.102.898 2 2 2 1.103 0 2-.898 2-2 0-1.103-.897-2-2-2" fill="#546670"/><use fill="#000" filter="url(#b)" xlink:href="#c"/><use fill="#EEC360" xlink:href="#c"/></g><rect x="2" y="2" width="96" height="96" rx="48" stroke="#0078D4" stroke-width="4"/></g></svg>
